X: 1
T: Green Grow the Rashes
R: strathspey
Z: 2006 John Chambers <jc:trillian.mit.edu>
S: handwritten MS of unknown origin
B: Gow Collection
M: C
L: 1/16
K: G
A2 | "G"GGG2 B3A B2G2 G2B2 | "Am"AAA2 e3d "D7"e2A2 A2B2 |  "C"c3B  ce3  "G"dcBA G3B  | "Am"ABc2 B3A | "Em"G2E2 E2 :|
A2 | "G"GGG2 g3f g2d2 d2g2 | "Am"eee2 a3g "D7"a2e2 e3f  |  "G"g3a  g2e2    dcBA G3B  | "Am"ABc2 B3A | "Em"G2E2 E2 |]
A2 | "G"GGG2 g3f g2d2 d2g2 | "Am"eee2 a3g "D7"a2e2 e3f  | "Em"g2b2 e2g2 "G"d2g2 B2g2 | "Am"ABc2 B3A | "Em"G2E2 E2 |]
